Numix/16/emotes/face-angry.svg

<?xml version="1.0" encoding="UTF-8" standalone="no"?>
<svg
   xmlns:dc="http://purl.org/dc/elements/1.1/"
   xmlns:cc="http://creativecommons.org/ns#"
   xmlns:rdf="http://www.w3.org/1999/02/22-rdf-syntax-ns#"
   xmlns:svg="http://www.w3.org/2000/svg"
   xmlns="http://www.w3.org/2000/svg"
   xmlns:sodipodi="http://sodipodi.sourceforge.net/DTD/sodipodi-0.dtd"
   xmlns:inkscape="http://www.inkscape.org/namespaces/inkscape"
   width="16px"
   height="16px"
   viewBox="0 0 12 12"
   version="1.1"
   id="svg3080"
   inkscape:version="0.91 r"
   sodipodi:docname="face-angry.svg">
  <metadata
     id="metadata3095">
    <rdf:RDF>
      <cc:Work
         rdf:about="">
        <dc:format>image/svg+xml</dc:format>
        <dc:type
           rdf:resource="http://purl.org/dc/dcmitype/StillImage" />
      </cc:Work>
    </rdf:RDF>
  </metadata>
  <defs
     id="defs3093" />
  <sodipodi:namedview
     pagecolor="#ffffff"
     bordercolor="#666666"
     borderopacity="1"
     objecttolerance="10"
     gridtolerance="10"
     guidetolerance="10"
     inkscape:pageopacity="0"
     inkscape:pageshadow="2"
     inkscape:window-width="640"
     inkscape:window-height="480"
     id="namedview3091" />
  <g
     id="surface1">
    <path
       style=" stroke:none;fill-rule:nonzero;fill:rgb(100%,54.901961%,36.078431%);fill-opacity:1;"
       d="M 11.25 6 C 11.25 8.484375 8.898438 10.5 6 10.5 C 3.101562 10.5 0.75 8.484375 0.75 6 C 0.75 3.515625 3.097656 1.5 6 1.5 C 8.902344 1.5 11.25 3.515625 11.25 6 Z M 11.25 6 "
       id="path3083" />
    <path
       style=" stroke:none;fill-rule:nonzero;fill:rgb(38.823529%,38.823529%,38.823529%);fill-opacity:1;"
       d="M 3.65625 4.246094 C 3.421875 4.394531 3.28125 4.648438 3.28125 4.921875 C 3.28125 5.363281 3.636719 5.71875 4.078125 5.71875 C 4.507812 5.71875 4.859375 5.378906 4.875 4.953125 Z M 3.65625 4.246094 "
       id="path3085" />
    <path
       style=" stroke:none;fill-rule:nonzero;fill:rgb(38.823529%,38.823529%,38.823529%);fill-opacity:1;"
       d="M 8.34375 4.246094 C 8.578125 4.394531 8.71875 4.648438 8.71875 4.921875 C 8.71875 5.363281 8.363281 5.71875 7.921875 5.71875 C 7.492188 5.71875 7.140625 5.378906 7.125 4.953125 Z M 8.34375 4.246094 "
       id="path3087" />
    <path
       style=" stroke:none;fill-rule:nonzero;fill:rgb(38.823529%,38.823529%,38.823529%);fill-opacity:1;"
       d="M 3.75 8.71875 C 3.9375 7.777344 4.886719 7.125 6 7.125 C 7.117188 7.125 8.066406 7.777344 8.25 8.71875 L 7.875 8.71875 C 7.738281 8.15625 6.972656 7.777344 6 7.777344 C 5.03125 7.777344 4.261719 8.15625 4.125 8.71875 Z M 3.75 8.71875 "
       id="path3089" />
  </g>
</svg>

<svg xmlns="http://www.w3.org/2000/svg" width="16" height="16" viewBox="0 0 12 12">
 <g>
  <path d="m 11.25 6 c 0 2.484 -2.352 4.5 -5.25 4.5 c -2.898 0 -5.25 -2.02 -5.25 -4.5 c 0 -2.484 2.348 -4.5 5.25 -4.5 c 2.902 0 5.25 2.02 5.25 4.5 m 0 0" style="fill:#ff8c5b;fill-opacity:1;stroke:none;fill-rule:nonzero"/>
  <path d="m 3.656 4.246 c -0.234 0.148 -0.375 0.402 -0.375 0.676 c 0 0.441 0.355 0.797 0.797 0.797 c 0.43 0 0.781 -0.34 0.797 -0.766 m -1.219 -0.707" style="fill:#626262;fill-opacity:1;stroke:none;fill-rule:nonzero"/>
  <path d="m 8.344 4.246 c 0.234 0.148 0.375 0.402 0.375 0.676 c 0 0.441 -0.355 0.797 -0.797 0.797 c -0.43 0 -0.781 -0.34 -0.797 -0.766 m 1.219 -0.707" style="fill:#626262;fill-opacity:1;stroke:none;fill-rule:nonzero"/>
  <path d="m 3.75 8.719 c 0.188 -0.941 1.137 -1.594 2.25 -1.594 c 1.117 0 2.066 0.652 2.25 1.594 l -0.375 0 c -0.137 -0.563 -0.902 -0.941 -1.875 -0.941 c -0.969 0 -1.738 0.379 -1.875 0.941 m -0.375 0" style="fill:#626262;fill-opacity:1;stroke:none;fill-rule:nonzero"/>
 </g>
</svg>
